X:279
T:Gipsy Hill Jig
C:Denis Darke
L:1/8
M:6/8
S:Colin Hume's website,  colinhume.com  - chords can also be printed below the stave.
Q:3/8=120
K:G
P:A
|: B/c/ | "G"dBg ded | "D7"cdc "G"BAG | "G"dBg ded | "A7"BAG "D"A2B/c/ |\
"G"dBg ded | "D7"cdc "G"BAG | "D7"DEF GAB | "D7"cAF "G"G2 :|
P:B
|: d | "G"GDD "D7"ADD | "G"BAG "D7"FED | "G"GDD "D7"ADD | "A7"BAG "D7"A2d |\
"G"GDD "D7"ADD | "G"BAG "D7"FED | "D7"DEF GAB | "D7"cAF "G"G2 :|

